public/excellence.svg

<svg height="46" viewBox="0 0 46 46" width="46" xmlns="http://www.w3.org/2000/svg" xmlns:xlink="http://www.w3.org/1999/xlink"><filter id="a"><feOffset/><feGaussianBlur result="blur" stdDeviation="5.5"/><feFlood flood-color="#c4c7ff" result="color"/><feComposite in="SourceGraphic" in2="blur" operator="out"/><feComposite in="color" operator="in"/><feComposite in2="SourceGraphic" operator="in"/></filter><path d="m43.889 15.778h-7.667v-7.667a5.116 5.116 0 0 0 -5.111-5.111h-23a5.116 5.116 0 0 0 -5.111 5.111v23a5.116 5.116 0 0 0 5.111 5.111h7.667v7.667a5.116 5.116 0 0 0 5.111 5.111h23a5.116 5.116 0 0 0 5.111-5.111v-23a5.116 5.116 0 0 0 -5.111-5.111zm-10.222 17.889h-15.334v-15.334h15.334z" fill="#737aef" transform="translate(-3 -3)"/><g filter="url(#a)"><path d="m43.889 15.778h-7.667v-7.667a5.116 5.116 0 0 0 -5.111-5.111h-23a5.116 5.116 0 0 0 -5.111 5.111v23a5.116 5.116 0 0 0 5.111 5.111h7.667v7.667a5.116 5.116 0 0 0 5.111 5.111h23a5.116 5.116 0 0 0 5.111-5.111v-23a5.116 5.116 0 0 0 -5.111-5.111zm-10.222 17.889h-15.334v-15.334h15.334z" fill="#fff" transform="translate(-3 -3)"/></g></svg>

<svg xmlns="http://www.w3.org/2000/svg" xmlns:xlink="http://www.w3.org/1999/xlink" width="46" height="46" viewBox="0 0 46 46">
  <defs>
    <filter id="ico_web">
      <feOffset input="SourceAlpha"/>
      <feGaussianBlur stdDeviation="5.5" result="blur"/>
      <feFlood flood-color="#c4c7ff" result="color"/>
      <feComposite operator="out" in="SourceGraphic" in2="blur"/>
      <feComposite operator="in" in="color"/>
      <feComposite operator="in" in2="SourceGraphic"/>
    </filter>
  </defs>
  <g data-type="innerShadowGroup">
    <path id="ico_web-2" data-name="ico web" d="M43.889,15.778H36.222V8.111A5.116,5.116,0,0,0,31.111,3h-23A5.116,5.116,0,0,0,3,8.111v23a5.116,5.116,0,0,0,5.111,5.111h7.667v7.667A5.116,5.116,0,0,0,20.889,49h23A5.116,5.116,0,0,0,49,43.889v-23A5.116,5.116,0,0,0,43.889,15.778ZM33.667,33.667H18.333V18.333H33.667Z" transform="translate(-3 -3)" fill="#737aef"/>
    <g transform="matrix(1, 0, 0, 1, 0, 0)" filter="url(#ico_web)">
      <path id="ico_web-3" data-name="ico web" d="M43.889,15.778H36.222V8.111A5.116,5.116,0,0,0,31.111,3h-23A5.116,5.116,0,0,0,3,8.111v23a5.116,5.116,0,0,0,5.111,5.111h7.667v7.667A5.116,5.116,0,0,0,20.889,49h23A5.116,5.116,0,0,0,49,43.889v-23A5.116,5.116,0,0,0,43.889,15.778ZM33.667,33.667H18.333V18.333H33.667Z" transform="translate(-3 -3)" fill="#fff"/>
    </g>
  </g>
</svg>
